gdscript/src/main/resources/icons/godot_editor/Zoom.svg

<svg height="16" viewBox="0 0 16 16" width="16" xmlns="http://www.w3.org/2000/svg"><path d="m6 1a5 5 0 0 0 -5 5 5 5 0 0 0 5 5 5 5 0 0 0 2.752-.83398l4.3184 4.3184 1.4141-1.4141-4.3184-4.3184a5 5 0 0 0 .41016-.75195h-.57617v-2h-1a3 3 0 0 1 -3 3 3 3 0 0 1 -3-3 3 3 0 0 1 3-3 3 3 0 0 1 2 .76758v-1.7676h.99023a5 5 0 0 0 -2.9902-1zm5 0v2h-2v2h2v2h2v-2h2v-2h-2v-2z" fill="#e0e0e0"/></svg>

<svg height="16" viewBox="0 0 16 16" width="16" xmlns="http://www.w3.org/2000/svg"><path d="M6 1a5 5 0 1 0 2.752 9.166l4.318 4.318 1.414-1.414-4.318-4.318a5 5 0 0 0 .41-.752H10V6H9a3 3 0 1 1-1-2.232V2h.99a5 5 0 0 0-3-1zm5 0v2H9v2h2v2h2V5h2V3h-2V1z" fill="#e0e0e0"/></svg>
